raw/symbols/metis.svg

<svg width="42" height="42" viewBox="0 0 42 42" fill="none" xmlns="http://www.w3.org/2000/svg">
<circle cx="21" cy="21" r="20" fill="#00DACC"/>
<path d="M16.1463 30.5507C16.2966 30.0998 16.5972 29.649 16.7475 29.0478C16.7475 28.8975 16.7475 28.5969 16.5972 28.4466C15.6954 27.2443 15.3948 25.8916 15.6954 24.539C15.6954 24.3887 15.6954 24.2384 15.8457 24.2384C15.8457 24.0881 15.996 24.0881 15.996 23.9378C17.0481 24.9899 17.3486 26.3425 17.4989 27.6952C17.7995 27.094 18.2504 26.4928 18.551 25.7413C18.551 25.5911 18.4007 25.4408 18.4007 25.2905C17.4989 23.9378 17.3486 22.4349 17.9498 20.7817C19.0019 21.8337 19.3024 23.1864 19.3024 24.539C19.7533 23.9378 20.0539 23.3367 20.5048 22.8858C20.5048 22.7355 20.5048 22.5852 20.3545 22.4349C19.9036 21.0823 19.9036 19.7296 20.6551 18.377C20.8054 18.2267 20.8054 18.0764 20.9557 17.9261C21.7071 19.1285 21.5568 20.3308 21.4065 21.5331H21.5568C21.8574 21.0823 22.158 20.7817 22.3083 20.3308C22.9095 18.6776 23.8112 17.4752 25.4644 16.7238C25.765 16.5735 25.9153 16.5735 26.2159 16.4232C26.2159 16.7238 26.2159 16.8741 26.0656 17.1747C25.6147 18.6776 24.5627 19.8799 23.0598 20.6314C22.4586 20.932 22.0077 21.3829 21.7071 21.984C22.9095 21.3829 24.1118 21.0823 25.6147 21.5331C25.3142 21.8337 25.1639 21.984 24.8633 22.1343C23.8112 22.8858 22.6089 23.1864 21.4065 23.0361C20.9557 23.0361 20.8054 23.0361 20.6551 23.3367C20.3545 23.7875 20.0539 24.3887 19.7533 24.9899C21.106 24.3887 22.4586 24.0881 23.9615 24.8396C23.5106 25.1402 23.2101 25.4408 22.9095 25.5911C21.8574 26.0419 20.8054 26.1922 19.603 25.8916C19.3024 25.7413 19.1522 25.8916 19.0019 26.1922C18.7013 26.7934 18.4007 27.3946 17.9498 28.146C19.3024 27.5449 20.6551 27.094 22.158 27.6952L22.3083 27.8454C22.158 27.9957 22.0077 27.9957 21.7071 28.146C20.5048 28.8975 19.3024 29.1981 17.9498 29.0478C17.6492 28.8975 17.3486 29.0478 17.3486 29.3484C16.8978 30.5507 16.4469 31.7531 15.996 32.8051C15.8457 33.256 15.5451 33.7069 15.2445 34.1577C15.0942 34.4583 14.7937 34.6086 14.4931 34.4583C10.4352 32.3542 7.57961 29.1981 6.52756 24.8396C4.42346 16.8741 8.78195 8.90855 16.5972 6.65416C25.6147 3.94889 34.482 9.9606 35.8347 18.6776C36.8867 25.7413 32.8288 32.5045 26.2159 34.9092C25.765 35.0595 25.4645 35.2098 25.1639 34.9092C24.8633 34.4583 24.8633 34.1577 25.0136 33.7069C25.6147 32.2039 26.0656 30.701 26.5165 29.1981C26.8171 28.2963 27.1177 27.9957 28.0194 27.9957C28.9212 27.8454 29.8229 27.8454 30.7247 27.6952C31.4762 27.5449 31.7767 27.2443 31.7767 26.4928C31.7767 26.3425 31.7767 26.0419 31.7767 25.8916C31.6265 25.5911 31.7767 25.2905 32.0773 24.9899C32.3779 24.6893 32.3779 24.539 32.0773 24.2384C31.927 24.0881 31.927 23.7875 32.0773 23.7875C32.3779 23.487 32.3779 23.1864 32.0773 22.8858C31.7767 22.5852 31.927 22.2846 32.2276 22.1343C32.5282 21.984 32.6785 21.8337 32.8288 21.5331C33.2797 21.2326 33.1294 20.932 32.8288 20.6314C32.2276 20.0302 31.4762 19.5793 30.875 18.9782C30.4241 18.6776 30.2738 18.0764 30.4241 17.6255C30.5744 16.7238 30.4241 15.9723 29.9732 15.2208C29.5224 14.6197 29.2218 13.8682 28.9212 13.267C28.4703 12.215 27.7188 11.4635 26.6668 11.1629C25.6147 10.8624 24.5627 10.7121 23.3603 10.5618C22.6089 10.4115 21.8574 10.4115 21.106 10.2612C19.1522 9.9606 17.3486 10.4115 15.8457 11.7641C15.3948 12.0647 14.944 12.5156 14.3428 12.6659C13.8919 12.8162 13.5913 13.267 13.2907 13.5676C13.1404 14.0185 12.8399 14.3191 12.389 14.4694C11.6375 15.0706 10.886 15.5214 10.2849 16.2729C10.1346 16.5735 9.68371 16.7238 9.53341 16.8741C8.63166 17.4752 8.48136 18.0764 8.78195 18.9782C8.93224 19.5793 9.08253 20.1805 8.93224 20.7817C8.78195 21.2326 8.78195 21.8337 8.93224 22.2846C8.93224 22.8858 9.38312 23.4869 9.98429 23.6372C10.4352 23.7875 10.7358 24.0881 10.7358 24.539C10.886 25.1402 11.1866 25.7413 11.6375 26.1922C12.0884 26.6431 12.389 27.2443 12.6896 27.8454C12.9901 28.5969 13.441 29.0478 14.1925 29.3484C14.944 29.649 15.5451 29.9495 16.2966 30.2501C15.8457 30.4004 15.996 30.4004 16.1463 30.5507Z" fill="#F3F3F3"/>
</svg>

<svg xmlns="http://www.w3.org/2000/svg" width="42" height="42" fill="none"><circle cx="21" cy="21" r="20" fill="#00DACC"/><path fill="#F3F3F3" d="M16.146 30.55c.15-.45.451-.901.601-1.502 0-.15 0-.451-.15-.601-.902-1.203-1.202-2.555-.902-3.908 0-.15 0-.3.15-.3 0-.15.151-.15.151-.301 1.052 1.052 1.353 2.405 1.503 3.757.3-.601.751-1.202 1.052-1.954 0-.15-.15-.3-.15-.45-.902-1.353-1.052-2.856-.451-4.51 1.052 1.053 1.352 2.405 1.352 3.758.451-.601.752-1.202 1.203-1.653 0-.15 0-.3-.15-.451-.451-1.353-.451-2.705.3-4.058.15-.15.15-.3.3-.45.752 1.201.602 2.404.452 3.606h.15c.3-.45.601-.751.751-1.202.602-1.653 1.503-2.856 3.156-3.607.301-.15.451-.15.752-.3 0 .3 0 .45-.15.75-.451 1.504-1.503 2.706-3.006 3.457a2.95 2.95 0 0 0-1.353 1.353c1.203-.601 2.405-.902 3.908-.45-.3.3-.451.45-.752.6-1.052.752-2.254 1.052-3.456.902-.451 0-.602 0-.752.3-.3.452-.601 1.053-.902 1.654 1.353-.601 2.706-.902 4.209-.15-.451.3-.752.6-1.052.751-1.053.45-2.105.601-3.307.3-.3-.15-.45 0-.601.301-.3.601-.601 1.203-1.052 1.954 1.352-.601 2.705-1.052 4.208-.45l.15.15c-.15.15-.3.15-.6.3-1.203.752-2.406 1.052-3.758.902-.3-.15-.601 0-.601.3-.451 1.203-.902 2.405-1.353 3.457-.15.451-.45.902-.752 1.353-.15.3-.45.45-.75.3-4.059-2.104-6.914-5.26-7.966-9.618-2.105-7.966 2.254-15.931 10.07-18.186 9.017-2.705 17.884 3.307 19.237 12.024 1.052 7.063-3.006 13.826-9.62 16.231-.45.15-.75.3-1.051 0-.3-.45-.3-.751-.15-1.202.6-1.503 1.052-3.006 1.503-4.509.3-.902.6-1.202 1.502-1.202.902-.15 1.804-.15 2.706-.3.751-.151 1.052-.452 1.052-1.203v-.601c-.15-.3 0-.601.3-.902.3-.3.3-.451 0-.752-.15-.15-.15-.45 0-.45.3-.301.3-.602 0-.902-.3-.3-.15-.601.15-.752.301-.15.452-.3.602-.6.45-.301.3-.602 0-.903-.601-.6-1.353-1.052-1.954-1.653-.45-.3-.601-.902-.45-1.353.15-.901 0-1.653-.452-2.404-.45-.601-.751-1.353-1.052-1.954-.45-1.052-1.202-1.803-2.254-2.104-1.052-.3-2.104-.45-3.307-.601-.751-.15-1.503-.15-2.254-.3-1.954-.301-3.757.15-5.26 1.502-.451.3-.902.752-1.503.902-.451.15-.752.601-1.052.902-.15.45-.451.751-.902.901-.752.602-1.503 1.052-2.104 1.804-.15.3-.601.45-.752.601-.901.601-1.052 1.202-.751 2.104.15.601.3 1.202.15 1.804-.15.45-.15 1.052 0 1.503 0 .6.451 1.202 1.052 1.352.451.15.752.451.752.902.15.601.45 1.202.901 1.653.451.451.752 1.052 1.053 1.653.3.752.751 1.203 1.503 1.503.751.301 1.352.602 2.104.902-.451.15-.301.15-.15.3Z"/></svg>
